files/resources/svgs/general/m-clipboard-document-check.svg

<svg width="20" height="20" viewBox="0 0 20 20" fill="none" xmlns="http://www.w3.org/2000/svg">
<path fill-rule="evenodd" clip-rule="evenodd" d="M17.9999 5.25C17.9999 4.08761 17.1185 3.1311 15.9875 3.0124C15.8688 1.88145 14.9123 1 13.7499 1H12.2499C11.0875 1 10.131 1.88145 10.0123 3.0124C9.13721 3.10424 8.4115 3.69769 8.12793 4.5H10.9999C12.3806 4.5 13.4999 5.61929 13.4999 7V14H15.7499C16.9925 14 17.9999 12.9926 17.9999 11.75V5.25ZM12.2499 2.5C11.8357 2.5 11.4999 2.83579 11.4999 3.25V3.5H14.4999V3.25C14.4999 2.83579 14.1641 2.5 13.7499 2.5H12.2499Z" fill="#0F172A"/>
<path fill-rule="evenodd" clip-rule="evenodd" d="M3 6C2.44772 6 2 6.44771 2 7V17C2 17.5523 2.44772 18 3 18H11C11.5523 18 12 17.5523 12 17V7C12 6.44772 11.5523 6 11 6H3ZM9.87404 10.166C10.1038 9.82138 10.0107 9.35573 9.66603 9.12596C9.32138 8.8962 8.85573 8.98933 8.62596 9.33397L6.13343 13.0728L5.28033 12.2197C4.98744 11.9268 4.51256 11.9268 4.21967 12.2197C3.92678 12.5126 3.92678 12.9874 4.21967 13.2803L5.71967 14.7803C5.87855 14.9392 6.1003 15.0185 6.3239 14.9963C6.5475 14.9742 6.7494 14.853 6.87404 14.666L9.87404 10.166Z" fill="#0F172A"/>
</svg>

<svg xmlns="http://www.w3.org/2000/svg" viewBox="0 0 20 20" fill="currentColor" aria-hidden="true">
  <path fill-rule="evenodd" d="M18 5.25a2.25 2.25 0 00-2.012-2.238A2.25 2.25 0 0013.75 1h-1.5a2.25 2.25 0 00-2.238 2.012c-.875.092-1.6.686-1.884 1.488H11A2.5 2.5 0 0113.5 7v7h2.25A2.25 2.25 0 0018 11.75v-6.5zM12.25 2.5a.75.75 0 00-.75.75v.25h3v-.25a.75.75 0 00-.75-.75h-1.5z" clip-rule="evenodd"/>
  <path fill-rule="evenodd" d="M3 6a1 1 0 00-1 1v10a1 1 0 001 1h8a1 1 0 001-1V7a1 1 0 00-1-1H3zm6.874 4.166a.75.75 0 10-1.248-.832l-2.493 3.739-.853-.853a.75.75 0 00-1.06 1.06l1.5 1.5a.75.75 0 001.154-.114l3-4.5z" clip-rule="evenodd"/>
</svg>
